application-settings.svg

<svg fill="currentColor" viewBox="0 0 24 24"><path d="M21 0H3C1.9 0 1 .9 1 2v16c0 1.1.9 2 2 2h18c1.1 0 2-.9 2-2V2c0-1.1-.9-2-2-2m0 5H3V2h18zM7 22h2v2H7zm4 0h2v2h-2zm4 0h2v2h-2z"/></svg>

<svg  viewBox="0 0 24 24" fill="currentColor"><path  d="M21 0H3C1.9 0 1 .9 1 2V18C1 19.1 1.9 20 3 20H21C22.1 20 23 19.1 23 18V2C23 .9 22.1 0 21 0M21 5H3V2H21V5M7 22H9V24H7V22M11 22H13V24H11V22M15 22H17V24H15V22"/></svg>
